X: 2506
T: Ballydesmond, The
R: slide
M: 12/8
K: Adorian
|:EFG A2 B c2 d e3|G2 E EDE G2 E D2 G|
EFG A2 B c2 d e2 f|1 g3 ded B2 A A2 G:|2 g3 ded B2 A A3||
|:a3 a2 b a2 g e2 f|g3 gfe def g2 d|
efg a2 b a2 g e2 f|g3 ded B2 A A3:|

